src/img/categ_1.svg

<svg width="100" height="100" viewBox="0 0 100 100" fill="none" xmlns="http://www.w3.org/2000/svg">
<g clip-path="url(#clip0_628_603)">
<path d="M46.6655 87.1791H16.7647C14.2771 87.1763 12.261 85.1604 12.2583 82.6727V71.057C12.2612 68.5693 14.2771 66.5532 16.7647 66.5505H46.6655C49.1531 66.5534 51.1692 68.5693 51.1719 71.057V82.6727C51.169 85.1604 49.1531 87.1764 46.6655 87.1791ZM16.7647 68.8941C15.5708 68.8955 14.6032 69.863 14.6021 71.0568V82.6725C14.6034 83.8665 15.571 84.834 16.7647 84.8352H46.6655C47.8594 84.8338 48.8268 83.8663 48.8281 82.6725V71.0568C48.8268 69.8629 47.8592 68.8955 46.6655 68.8941H16.7647Z" fill="#1E2E36"/>
<path d="M10.0955 87.1791H4.50643C2.01875 87.1764 0.00287163 85.1603 0 82.6726V60.4356C0.00287163 57.948 2.01875 55.9319 4.50643 55.9292H10.0953C12.583 55.9321 14.599 57.948 14.6017 60.4356V82.6726C14.599 85.1603 12.5831 87.1764 10.0955 87.1791ZM4.50643 58.273C3.31251 58.2743 2.34511 59.2417 2.34375 60.4356V82.6726C2.34511 83.8666 3.31267 84.834 4.50643 84.8353H10.0953C11.2892 84.834 12.2566 83.8664 12.258 82.6726V60.4356C12.2566 59.2417 11.2892 58.2741 10.0953 58.273H4.50643Z" fill="#1E2E36"/>
<path d="M86.5699 78.0366H13.4301C12.783 78.0366 12.2583 77.512 12.2583 76.8648C12.2583 76.2177 12.783 75.6929 13.4301 75.6929H86.5701C87.2172 75.6929 87.7419 76.2175 87.7419 76.8648C87.7419 77.5121 87.2172 78.0366 86.5699 78.0366Z" fill="#1E2E36"/>
<path d="M46.6655 68.894H16.7647C14.2771 68.8911 12.261 66.8753 12.2583 64.3876V46.5406C12.2612 44.0529 14.2771 42.0369 16.7647 42.0342H46.6655C49.1531 42.0371 51.1692 44.0529 51.1719 46.5406V64.3876C51.169 66.8753 49.1531 68.8913 46.6655 68.894ZM16.7647 44.3778C15.5708 44.3791 14.6032 45.3465 14.6021 46.5404V64.3874C14.6034 65.5813 15.571 66.5489 16.7647 66.5501H46.6655C47.8594 66.5487 48.8268 65.5812 48.8281 64.3874V46.5406C48.8268 45.3467 47.8592 44.3791 46.6655 44.3779L16.7647 44.3778Z" fill="#1E2E36"/>
<path d="M83.2353 68.894H53.3345C50.8469 68.8911 48.8308 66.8753 48.8281 64.3876V46.5406C48.831 44.0529 50.8469 42.0369 53.3345 42.0342H83.2353C85.723 42.0371 87.739 44.0529 87.7417 46.5406V64.3876C87.739 66.8753 85.7231 68.8913 83.2353 68.894ZM53.3345 44.3778C52.1406 44.3791 51.1731 45.3467 51.1719 46.5404V64.3874C51.1732 65.5813 52.1408 66.5487 53.3345 66.5501H83.2353C84.4292 66.5487 85.3968 65.5812 85.398 64.3874V46.5406C85.3966 45.3467 84.429 44.3791 83.2353 44.3779L53.3345 44.3778Z" fill="#1E2E36"/>
<path d="M83.2353 87.1791H53.3345C50.8469 87.1763 48.8308 85.1604 48.8281 82.6727V71.057C48.831 68.5693 50.8469 66.5532 53.3345 66.5505H83.2353C85.723 66.5534 87.739 68.5693 87.7417 71.057V82.6727C87.739 85.1604 85.7231 87.1764 83.2353 87.1791ZM53.3345 68.8941C52.1406 68.8955 51.1732 69.863 51.1719 71.0568V82.6725C51.1732 83.8665 52.1408 84.8338 53.3345 84.8352H83.2353C84.4292 84.8338 85.3968 83.8663 85.398 82.6725V71.0568C85.3966 69.8629 84.429 68.8953 83.2353 68.8941H53.3345Z" fill="#1E2E36"/>
<path d="M95.4935 87.1791H89.9047C87.417 87.1762 85.401 85.1603 85.3983 82.6726V60.4356C85.4011 57.948 87.417 55.9319 89.9047 55.9292H95.4935C97.9812 55.9321 99.9973 57.948 100 60.4356V82.6726C99.9971 85.1603 97.9812 87.1764 95.4935 87.1791ZM89.9045 58.273C88.7106 58.2743 87.7432 59.2417 87.7418 60.4356V82.6726C87.7432 83.8666 88.7108 84.834 89.9045 84.8353H95.4934C96.6873 84.834 97.6549 83.8664 97.656 82.6725V60.4356C97.6547 59.2417 96.6873 58.2741 95.4934 58.273H89.9045Z" fill="#1E2E36"/>
<path d="M52.7396 68.8941H47.2604C46.6133 68.8941 46.0886 68.3694 46.0886 67.7223C46.0886 67.0751 46.6133 66.5503 47.2604 66.5503H52.7396C53.3867 66.5503 53.9116 67.075 53.9116 67.7223C53.9116 68.3696 53.3867 68.8941 52.7396 68.8941Z" fill="#1E2E36"/>
<path d="M71.4504 38.6387H28.5495C27.9024 38.6387 27.3777 38.1141 27.3777 37.4668V9.62467C27.3777 8.97754 27.9024 8.45288 28.5495 8.45288H71.4504C72.0976 8.45288 72.6222 8.97754 72.6222 9.62467V37.4668C72.6222 38.1139 72.0976 38.6387 71.4504 38.6387ZM29.7215 36.295H70.2787V10.7965H29.7215V36.295Z" fill="#1E2E36"/>
<path d="M67.5469 34.735H32.4531C31.8059 34.735 31.2813 34.2104 31.2813 33.5631V13.5282C31.2813 12.8811 31.8059 12.3564 32.4531 12.3564H67.5469C68.1942 12.3564 68.7188 12.8811 68.7188 13.5282V33.5631C68.7187 34.2104 68.194 34.735 67.5469 34.735ZM33.625 32.3913H66.3751V14.7002H33.625V32.3913Z" fill="#1E2E36"/>
<path d="M36.6535 30.4398C36.0063 30.4398 35.4815 29.9152 35.4815 29.268C35.4815 28.9572 35.605 28.6591 35.8247 28.4393L41.8511 22.4128C42.3087 21.9552 43.0508 21.9552 43.5084 22.4128L47.1655 26.0697C47.6231 26.5273 47.6231 27.2694 47.1655 27.727C46.7079 28.1846 45.9658 28.1846 45.5082 27.727L42.6798 24.8988L37.482 30.0966C37.2626 30.3167 36.9643 30.4402 36.6535 30.4398Z" fill="#1E2E36"/>
<path d="M63.3461 30.3798C63.0352 30.3802 62.7369 30.2567 62.5175 30.0366C61.0915 28.6106 59.6655 27.1839 58.2395 25.7565C56.6337 24.1528 55.0292 22.5482 53.4259 20.9428L52.6742 20.1916C52.4374 19.955 52.2006 19.7183 51.9638 19.4817L45.4418 26.0036C44.9842 26.4612 44.2421 26.4612 43.7845 26.0036C43.3269 25.546 43.3269 24.804 43.7845 24.3464L51.1356 16.9953C51.3553 16.7756 51.6535 16.6521 51.9643 16.6521H51.9651C52.2763 16.6523 52.5744 16.7763 52.7942 16.9965C53.3057 17.5094 53.8178 18.0219 54.331 18.5339L55.0839 19.2862C56.6866 20.891 58.291 22.4954 59.8971 24.0994C61.3217 25.5261 62.7477 26.9528 64.1751 28.3795C64.6327 28.8371 64.6327 29.5791 64.1751 30.0368C63.9548 30.2563 63.6569 30.3798 63.3461 30.3798Z" fill="#1E2E36"/>
<path d="M59.0688 26.1003C58.7582 26.1003 58.4602 25.9771 58.2405 25.7575C56.6334 24.1526 55.0285 22.5477 53.4256 20.9427C53.092 20.6087 52.9913 20.107 53.1704 19.6702C54.1886 17.1856 57.0281 15.9969 59.5128 17.015C61.9974 18.0332 63.1861 20.8727 62.168 23.3574C61.6742 24.5623 60.7177 25.5189 59.5128 26.0126C59.372 26.0706 59.2212 26.1003 59.0688 26.1003ZM55.7176 19.921C56.8981 21.1026 58.0796 22.2841 59.2624 23.4658C60.3398 22.5854 60.4994 20.9984 59.619 19.921C58.7386 18.8437 57.1516 18.6841 56.0742 19.5645C55.9438 19.671 55.8242 19.7905 55.7176 19.921Z" fill="#1E2E36"/>
<path d="M92.699 91.547C91.2829 91.5487 90.0485 90.5844 89.7074 89.21L88.9794 86.2906C88.8228 85.6626 89.2049 85.0266 89.8329 84.87C89.9257 84.8469 90.0209 84.8352 90.1165 84.8352H95.2814C95.9285 84.8352 96.4534 85.3599 96.4534 86.007C96.4534 86.1026 96.4417 86.1979 96.4186 86.2906L95.6905 89.21C95.3495 90.5844 94.115 91.5489 92.699 91.547ZM91.6165 87.179L91.9816 88.6428C92.0804 89.0389 92.4816 89.2801 92.8779 89.1813C93.1431 89.1151 93.3502 88.908 93.4164 88.6428L93.7814 87.1788L91.6165 87.179Z" fill="#1E2E36"/>
<path d="M7.30102 91.547C5.88497 91.5487 4.65051 90.5844 4.30946 89.21L3.58142 86.2906C3.42483 85.6626 3.80693 85.0266 4.43497 84.87C4.52771 84.8469 4.62298 84.8352 4.71859 84.8352H9.88346C10.5306 84.8352 11.0554 85.3599 11.0554 86.007C11.0554 86.1026 11.0438 86.1979 11.0206 86.2906L10.2926 89.21C9.95136 90.5844 8.7169 91.5489 7.30102 91.547ZM6.21859 87.179L6.58362 88.6428C6.68244 89.0389 7.08362 89.2801 7.47991 89.1813C7.74511 89.1151 7.95221 88.908 8.01842 88.6428L8.38346 87.1788L6.21859 87.179Z" fill="#1E2E36"/>
</g>
<defs>
<clipPath id="clip0_628_603">
<rect width="100" height="100" fill="white"/>
</clipPath>
</defs>
</svg>

<svg width="100" height="100" fill="none" xmlns="http://www.w3.org/2000/svg"><g clip-path="url(#clip0_628_603)" fill="#1E2E36"><path d="M46.666 87.18H16.765a4.511 4.511 0 01-4.507-4.507V71.057a4.512 4.512 0 014.507-4.507h29.9a4.512 4.512 0 014.507 4.507v11.616a4.511 4.511 0 01-4.506 4.506zM16.765 68.893a2.165 2.165 0 00-2.163 2.163v11.615a2.165 2.165 0 002.163 2.163h29.9a2.165 2.165 0 002.163-2.162V71.056a2.165 2.165 0 00-2.163-2.163h-29.9z"/><path d="M10.095 87.18H4.506A4.512 4.512 0 010 82.672V60.436a4.512 4.512 0 014.506-4.507h5.59a4.511 4.511 0 014.506 4.507v22.237a4.511 4.511 0 01-4.507 4.506zM4.506 58.272a2.165 2.165 0 00-2.162 2.163v22.237a2.165 2.165 0 002.162 2.162h5.59a2.165 2.165 0 002.162-2.162V60.436a2.165 2.165 0 00-2.163-2.163H4.506z"/><path d="M86.57 78.037H13.43a1.172 1.172 0 010-2.344h73.14a1.172 1.172 0 110 2.344zm-39.904-9.143H16.765a4.511 4.511 0 01-4.507-4.506V46.54a4.511 4.511 0 014.507-4.507h29.9a4.511 4.511 0 014.507 4.507v17.847a4.511 4.511 0 01-4.506 4.506zM16.765 44.378a2.165 2.165 0 00-2.163 2.162v17.847a2.165 2.165 0 002.163 2.163h29.9a2.165 2.165 0 002.163-2.163V46.541a2.165 2.165 0 00-2.163-2.163h-29.9z"/><path d="M83.235 68.894h-29.9a4.511 4.511 0 01-4.507-4.506V46.54a4.511 4.511 0 014.506-4.507h29.901a4.511 4.511 0 014.507 4.507v17.847a4.511 4.511 0 01-4.507 4.506zm-29.9-24.516a2.165 2.165 0 00-2.163 2.162v17.847a2.165 2.165 0 002.163 2.163h29.9a2.165 2.165 0 002.163-2.163V46.541a2.165 2.165 0 00-2.163-2.163h-29.9z"/><path d="M83.235 87.18h-29.9a4.511 4.511 0 01-4.507-4.507V71.057a4.512 4.512 0 014.506-4.507h29.901a4.512 4.512 0 014.507 4.507v11.616a4.511 4.511 0 01-4.507 4.506zm-29.9-18.286a2.165 2.165 0 00-2.163 2.163v11.615a2.165 2.165 0 002.163 2.163h29.9a2.165 2.165 0 002.163-2.162V71.056a2.165 2.165 0 00-2.163-2.163h-29.9z"/><path d="M95.493 87.18h-5.588a4.512 4.512 0 01-4.507-4.507V60.436a4.511 4.511 0 014.507-4.507h5.588A4.512 4.512 0 01100 60.436v22.237a4.512 4.512 0 01-4.507 4.506zm-5.588-28.907a2.165 2.165 0 00-2.163 2.163v22.237a2.165 2.165 0 002.162 2.162h5.59a2.165 2.165 0 002.162-2.162V60.436a2.165 2.165 0 00-2.163-2.163h-5.588zM52.74 68.894h-5.48a1.172 1.172 0 010-2.344h5.48a1.172 1.172 0 010 2.344zm18.71-30.255h-42.9a1.172 1.172 0 01-1.172-1.172V9.625c0-.647.524-1.172 1.171-1.172H71.45c.648 0 1.172.525 1.172 1.172v27.842c0 .647-.524 1.172-1.172 1.172zm-41.729-2.344H70.28V10.797H29.722v25.498z"/><path d="M67.547 34.735H32.453a1.172 1.172 0 01-1.172-1.172V13.528c0-.647.525-1.172 1.172-1.172h35.094c.647 0 1.172.525 1.172 1.172v20.035c0 .647-.525 1.172-1.172 1.172zm-33.922-2.344h32.75v-17.69h-32.75v17.69z"/><path d="M36.654 30.44a1.172 1.172 0 01-.83-2l6.027-6.027a1.172 1.172 0 011.657 0l3.657 3.657a1.172 1.172 0 01-1.657 1.657l-2.828-2.828-5.198 5.198c-.22.22-.518.343-.828.343z"/><path d="M63.346 30.38c-.31 0-.61-.123-.828-.343l-4.279-4.28c-1.605-1.604-3.21-3.209-4.813-4.814l-.752-.751-.71-.71-6.522 6.522a1.172 1.172 0 01-1.657-1.658l7.35-7.35a1.172 1.172 0 011.659.001 856.7 856.7 0 001.537 1.537l.753.752a4368.03 4368.03 0 004.813 4.813c1.425 1.427 2.85 2.854 4.278 4.28a1.172 1.172 0 01-.829 2z"/><path d="M59.069 26.1c-.31 0-.609-.123-.829-.343-1.607-1.604-3.212-3.21-4.814-4.814a1.172 1.172 0 01-.256-1.273 4.862 4.862 0 116.343 6.343 1.167 1.167 0 01-.444.087zm-3.351-6.179c1.18 1.182 2.362 2.363 3.544 3.545a2.52 2.52 0 10-3.544-3.545zm36.981 71.626a3.078 3.078 0 01-2.992-2.337l-.728-2.92a1.172 1.172 0 011.138-1.455h5.164a1.172 1.172 0 011.138 1.456l-.728 2.919a3.078 3.078 0 01-2.992 2.337zm-1.082-4.368l.365 1.464a.74.74 0 001.434 0l.365-1.464h-2.165zM7.301 91.547a3.078 3.078 0 01-2.992-2.337l-.728-2.92a1.172 1.172 0 011.138-1.455h5.164a1.172 1.172 0 011.138 1.456l-.728 2.919A3.078 3.078 0 017.3 91.547zm-1.082-4.368l.365 1.464a.74.74 0 001.434 0l.365-1.464H6.22z"/></g><defs><clipPath id="clip0_628_603"><path fill="#fff" d="M0 0h100v100H0z"/></clipPath></defs></svg>
